X:1
T:Le Dauphin
C:Trad. Ecosse, abc file by Bernard Loffet
L:1/8
Q:264
M:3/4
K:C
z4G2|[G2G,2]G,A[B2G,2]|[A2F,2]F,2[F2F,2]|[F2F,2]F,G[A2F,2]|[G2G,2]G,2G,2|[B2G,2][B2G,2][B2G,2]|[c2F,2]F,2[A2F,2]|[A2F,2][c2F,2][c2F,2]|[B2G,2]G,2[B2G,2]| \
[c2C,2]C,d[e2C,2]|[d2G,2]G,2[B2G,2]|[A2F,2][B2F,2][c2F,2]|[B2G,2]G,2[G2G,2]|[A2A,2]A,2[E2A,2]|[E2A,2]A,2[E2A,2]|[F2F,2]F,2[G2F,2]|[G2G,2]G,2G,2|G,2G,2G,2| \
G,2G,2G,2|G,2G,4| \
Z:Created with TablEdit http://www.tabledit.com/ by Bernard Loffet
